X:1
T:Jesus Is Coming Again
T:Jesus Is Coming Again
T:C. M. Tate
T:C. M. Tate, 1912
T:Public Domain Courtesy of the Cyber Hymnal™
T:Public Domain Courtesy of the Cyber Hymnal™
C:C. M. Tate
Z:Public Domain
Z:Courtesy of the Cyber Hymnal™
%%score ( 1 2 ) 3
L:1/8
Q:1/4=93
M:6/8
K:F
V:1 treble 
V:2 treble 
V:3 bass 
V:1
 [FA]2 [FA] G2 F | [FA]2 [Ac] [Ac]3 | [Bd][Bd][Bd] [Ac]<[FA]F | [FA][EG][FA] [EG]2 F | %4
w: 1.~Pre- cious pro- mise|of our Lord,|Je- sus is com- ing, is|com- ing a- gain; ’Tis|
w: 2.~When we see the|light- ning fly,|Je- sus is com- ing, is|com- ing a- gain; The|
w: 3.~When we hear the|thun- der roll,|Je- sus is com- ing, is|com- ing a- gain; The|
w: 4.~When the an- gel|takes his stand,|Je- sus is com- ing, is|com- ing a- gain; One|
w: 5.~When we hear His|com- ing feet,|Je- sus is com- ing, is|com- ing a- gain; The|
w: 6.~When He ga- thers|all His own,|Je- sus is com- ing, is|com- ing a- gain; The|
 [FA]2 [FA] [FG]2 F | [FA]2 [Ac] [Ac]3 | [Af][Af][Af] [Ac]<[FA]F | [FA][CF][CG] [CF]2 || %8
w: writ- ten in His|bless- èd Word,|Je- sus is com- ing, is|com- ing a- gain.|
w: stars all fall- ing|from the sky,|Je- sus is com- ing, is|com- ing a- gain.|
w: hea- vens pass- ing|as a scroll,|Je- sus is com- ing, is|com- ing a- gain.|
w: foot on sea and|one on land,|Je- sus is com- ing, is|com- ing a- gain.|
w: earth will melt with|fer- vent heat,|Je- sus is com- ing, is|com- ing a- gain.|
w: wick- ed left will|weep and moan,|Je- sus is com- ing, is|com- ing a- gain.|
"^Refrain" [Ac]/[Ac]/ | [Bd]3 [Bf]3 | [Af]3 [Ac]3 | [Ac][Ac][Ac] [FA][EG][FA] | %12
w: ||||
w: ||||
w: He is|com- ing,|com- ing,|Je- sus is com- ing a-|
w: ||||
w: ||||
w: ||||
 [EG]3- [EG]2 F/[FG]/ | [FA]2 [FA] [FA][EG]F | [Ac]2 [Ac] [Ac]3 | [Af][Af][Af] [Ac]<[FA]F | %16
w: ||||
w: ||||
w: gain; * When He|comes He’ll take all His|child- ren home,|Je- sus is com- ing, is|
w: ||||
w: ||||
w: ||||
 [FA][CF][CG] [CF]3 |] %17
w: |
w: |
w: com- ing a- gain.|
w: |
w: |
w: |
V:2
 x5 F | x6 | x5 F | x5 F | x5 F | x6 | x5 F | x5 || x | x6 | x6 | x6 | x5 F/ x/ | x5 F | x6 | %15
 x5 F | x6 |] %17
V:3
 [F,C]2 [F,C] [F,B,]2 [F,A,] | [F,C]2 [F,F] [F,F]3 | [B,F][B,F][B,F] [F,F]<[F,C][F,A,] | %3
w: |||
 [C,C][C,C][C,C] [C,C]2 [F,A,] | [F,C]2 [F,C] [F,B,]2 [F,A,] | [F,C]2 [F,F] [F,F]3 | %6
w: |||
 [F,C][F,C][F,C] [F,F]<[F,C][F,A,] | [C,C][C,A,][C,B,] [F,,F,A,]2 || z | [B,F][B,F][B,F] [B,D]3 | %10
w: |||Com- ing a- gain,|
 [F,C][F,C][F,C] [F,F]2 [F,F] | [F,F][F,F][F,F] [F,C][F,C][F,C] | [C,C]3- [C,C]2 [F,A,]/[F,B,]/ | %13
w: com- ing a- gain, yes,|Je- sus is com- ing a-|gain * * *|
 [F,C]2 [F,C] [F,C][F,B,][F,A,] | [F,C]2 [F,F] [F,F]3 | [F,C][F,C][F,C] [F,F]<[F,C][F,A,] | %16
w: |||
 [C,C][C,A,][C,B,] [F,,F,A,]3 |] %17
w: |

